X:236
T:The Pine Stump Reel
R:reel
C:Bruce Osborne - Jan. 2003
Z:abc by bosborne@kos.net
M:2/4
L:1/8
K:Amaj
E/F/|Ac/A/ E/A/c/f/|e/c/f/c/ e/c/A/c/|B/A/B/c/ d/f/e/B/|A/G/A/B/ cE/F/|\
Ac/A/ E/A/c/f/|e/c/f/c/ e/c/A/c/|B/A/B/c/ d/f/e/B/|A/G/A/B/ A:|
|:c/d/|e/a/g/a/ f/e/c/f/|e/c/f/c/ e/c/A/c/|e/a/g/a/ f/a/e/c/|B/A/B/c/ Bc/d/|\
e/a/g/a/ f/e/c/f/|e/c/f/c/ e/c/A/c/|e/a/g/a/ f/e/c/f/|e/c/B/c/ A:|
